X:239
T:En regardant vo gratieux maintien (Chanson 24)
C:Manuscript de Bayeux (fin XVe)
R:Chanson
S:from bay24.MID
M:3/4
L:1/8
Q:1/4=120
%beats in anacrusis = 4
K:C 
V:1
C2 | E4G2 | D4D2 | F4FE/2D/2 | 
[M:2/4]CED2 | [M:3/4]C4C2 | E4F2 | G4G2 | A2c2B2 | 
[M:2/4]A2 Bc | c/2B/2A/2G/2 A2 | [M:3/4]G4G2 | c4A2 | 
d4c2 | Bc c/2B/2A/2G/2 A2 | G6 | G2c2c2 | 
c2A2A2 | G2A4 | G2F2F2 | DFE2D2- | 
D2z2D2 | G4G2 | C4E2 | G4F2 | 
EF F/2E/2D/2C/2 D2 | C6 |]




